src/images/account.svg

<svg width="26" height="26" viewBox="0 0 26 26" fill="none" xmlns="http://www.w3.org/2000/svg">
<g clip-path="url(#clip0_14_324)">
<path d="M26 13C26 5.8203 20.1797 0 13 0C5.8203 0 0 5.8203 0 13C0 20.1797 5.8203 26 13 26C20.1797 26 26 20.1797 26 13Z" fill="#313131"/>
<path fill-rule="evenodd" clip-rule="evenodd" d="M14.4299 14.9678C15.7917 14.4057 16.7501 13.0648 16.7501 11.5C16.7501 9.42893 15.0712 7.75 13.0001 7.75C10.929 7.75 9.2501 9.42893 9.2501 11.5C9.2501 13.0647 10.2085 14.4056 11.5702 14.9677C10.1756 15.1999 8.89263 15.7659 7.80835 16.5806L9.1899 18.4194C10.2512 17.6221 11.5687 17.15 12.9999 17.15C14.431 17.15 15.7485 17.6221 16.8098 18.4194L18.1914 16.5806C17.1072 15.766 15.8244 15.2 14.4299 14.9678Z" fill="white"/>
</g>
<defs>
<clipPath id="clip0_14_324">
<rect width="26" height="26" fill="white"/>
</clipPath>
</defs>
</svg>

<svg width="26" height="26" fill="none" xmlns="http://www.w3.org/2000/svg"><g clip-path="url(#a)"><path d="M26 13c0-7.18-5.82-13-13-13S0 5.82 0 13s5.82 13 13 13 13-5.82 13-13Z" fill="#313131"/><path fill-rule="evenodd" clip-rule="evenodd" d="M14.43 14.968a3.751 3.751 0 1 0-2.86 0 8.614 8.614 0 0 0-3.762 1.613l1.382 1.838A6.317 6.317 0 0 1 13 17.15c1.431 0 2.748.472 3.81 1.27l1.381-1.84a8.614 8.614 0 0 0-3.761-1.612Z" fill="#fff"/></g><defs><clipPath id="a"><path fill="#fff" d="M0 0h26v26H0z"/></clipPath></defs></svg>
